; generated by Slic3r 1.2.9 on 2016-08-27 at 16:48:10

; external perimeters extrusion width = 0.30mm
; perimeters extrusion width = 0.50mm
; infill extrusion width = 0.50mm
; solid infill extrusion width = 0.50mm
; top infill extrusion width = 0.50mm
; support material extrusion width = 0.30mm

M190 S40 ; set bed temperature
M104 S220 ; set temperature
G28 ; home all axes
G1 Z5 F5000 ; lift nozzle

M109 S220 ; wait for temperature to be reached
G21 ; set units to millimeters
G90 ; use absolute coordinates
M82 ; use absolute distances for extrusion
G92 E0
G1 Z0.300 F7800.000
G1 E-4.00000 F2400.00000
G92 E0
G1 X93.241 Y72.694 F7800.000
G1 E4.00000 F2400.00000
G1 X93.583 Y72.293 E4.03520 F1800.000
G1 X94.518 Y71.370 E4.12297
G1 X94.924 Y71.033 E4.15816
G1 X96.003 Y70.286 E4.24587
G1 X96.460 Y70.024 E4.28106
G1 X97.652 Y69.473 E4.36881
G1 X98.148 Y69.294 E4.40400
G1 X99.416 Y68.956 E4.49169
G1 X99.935 Y68.865 E4.52690
G1 X100.706 Y68.769 E4.57882
G1 X118.205 Y67.512 E5.75083
G1 X118.750 Y67.493 E5.78726
G1 X121.295 Y67.493 E5.95728
G1 X122.298 Y67.559 E6.02446
G1 X122.496 Y67.586 E6.03782 F1800.000
G1 X124.410 Y68.101 E6.17019
G1 X124.594 Y68.177 E6.18351
G1 X126.313 Y69.171 E6.31616
G1 X126.471 Y69.293 E6.32953
G1 X127.872 Y70.696 E6.46194
G1 X127.993 Y70.854 E6.47525
G1 X128.985 Y72.573 E6.60779
G1 X129.061 Y72.757 E6.62111
G1 X129.574 Y74.675 E6.75375
G1 X129.600 Y74.872 E6.76707
G1 X129.665 Y75.863 E6.83342
G1 X129.669 Y120.466 E9.81313
G1 X129.649 Y139.143 E11.06087
G1 X129.633 Y139.625 E11.09304
G1 X129.591 Y140.276 E11.13663
G1 X129.461 Y141.268 E11.20349
G1 X129.334 Y141.908 E11.24708
G1 X129.075 Y142.875 E11.31393
G1 X128.865 Y143.492 E11.35751
G1 X128.481 Y144.417 E11.42437
G1 X128.192 Y145.001 E11.46796
G1 X127.690 Y145.867 E11.53481
G1 X127.326 Y146.409 E11.57839
G1 X126.715 Y147.202 E11.64525
G1 X126.296 Y147.676 E11.68754
G1 X125.574 Y148.396 E11.75569
G1 X125.081 Y148.826 E11.79935
G1 X124.286 Y149.431 E11.86611
G1 X123.758 Y149.780 E11.90840
G1 X122.872 Y150.288 E11.97659
G1 X122.285 Y150.574 E12.02024
G1 X121.359 Y150.951 E12.08700
G1 X120.740 Y151.157 E12.13059
G1 X119.772 Y151.410 E12.19746
G1 X119.131 Y151.533 E12.24108
G1 X118.031 Y151.662 E12.31504
G1 X99.033 Y152.500 E13.58542
G1 X96.962 Y152.306 E13.72443
G1 X96.757 Y152.258 E13.73849
G1 X95.012 Y151.615 E13.86269
G1 X94.827 Y151.520 E13.87660
G1 X93.290 Y150.472 E14.00088
G1 X93.133 Y150.335 E14.01480
G1 X91.897 Y148.946 E14.13898
G1 X91.782 Y148.780 E14.15248
G1 X90.916 Y147.128 E14.27709
G1 X90.843 Y146.933 E14.29101
G1 X90.405 Y145.126 E14.41523
G1 X90.332 Y143.983 E14.49172
G1 X90.876 Y78.982 E18.83430
G1 X91.008 Y77.676 E18.92198
G1 X91.103 Y77.174 E18.95612
G1 X91.460 Y75.895 E19.04488
G1 X91.646 Y75.401 E19.08008
G1 X92.212 Y74.217 E19.16783
G1 X92.480 Y73.763 E19.20302
G1 X93.215 Y72.731 E19.28769
G1 X93.649 Y73.041 F7800.000
G1 X93.991 Y72.640 E19.32289 F1800.000
G1 X94.860 Y71.782 E19.40448
G1 X95.266 Y71.446 E19.43967
G1 X96.269 Y70.751 E19.52120
G1 X96.726 Y70.489 E19.55640
G1 X97.834 Y69.976 E19.63796
G1 X98.330 Y69.797 E19.67316
G1 X99.509 Y69.483 E19.75468
G1 X100.028 Y69.392 E19.78988
G1 X100.745 Y69.304 E19.83815
G1 X118.243 Y68.047 E21.01015
G1 X118.750 Y68.028 E21.04402
G1 X121.295 Y68.028 E21.21404
G1 X122.228 Y68.090 E21.27649
G1 X122.426 Y68.117 E21.28984 F1800.000
G1 X124.204 Y68.595 E21.41289
G1 X124.389 Y68.672 E21.42622
G1 X125.986 Y69.596 E21.54953
G1 X126.145 Y69.718 E21.56289
G1 X127.447 Y71.022 E21.68598
G1 X127.568 Y71.180 E21.69929
G1 X128.490 Y72.777 E21.82250
G1 X128.566 Y72.962 E21.83582
G1 X129.043 Y74.745 E21.95912
G1 X129.069 Y74.942 E21.97244
G1 X129.130 Y75.864 E22.03412
G1 X129.133 Y120.466 E25.01382
G1 X129.113 Y139.143 E26.26152
G1 X129.098 Y139.590 E26.29143
G1 X129.056 Y140.241 E26.33502
G1 X128.935 Y141.164 E26.39718
G1 X128.808 Y141.804 E26.44076
G1 X128.568 Y142.702 E26.50290
G1 X128.358 Y143.320 E26.54648
G1 X128.001 Y144.179 E26.60863
G1 X127.711 Y144.764 E26.65222
G1 X127.245 Y145.569 E26.71436
G1 X126.882 Y146.111 E26.75795
G1 X126.313 Y146.847 E26.82010
G1 X125.895 Y147.322 E26.86239
G1 X125.222 Y147.992 E26.92583
G1 X124.729 Y148.422 E26.96949
G1 X123.990 Y148.984 E27.03155
G1 X123.446 Y149.344 E27.07514
G1 X122.638 Y149.806 E27.13732
G1 X122.050 Y150.092 E27.18096
G1 X121.190 Y150.443 E27.24303
G1 X120.571 Y150.649 E27.28661
G1 X119.671 Y150.884 E27.34878
G1 X119.030 Y151.007 E27.39239
G1 X118.008 Y151.127 E27.46114
G1 X99.010 Y151.965 E28.73152
G1 X97.084 Y151.785 E28.86075
G1 X96.879 Y151.737 E28.87480
G1 X95.258 Y151.139 E28.99025
G1 X95.072 Y151.044 E29.00416
G1 X93.643 Y150.070 E29.11969
G1 X93.487 Y149.932 E29.13361
G1 X92.338 Y148.642 E29.24905
G1 X92.223 Y148.475 E29.26255
G1 X91.418 Y146.939 E29.37841
G1 X91.344 Y146.744 E29.39234
G1 X90.938 Y145.065 E29.50780
G1 X90.867 Y143.988 E29.57989
G1 X91.411 Y78.990 E33.92225
G1 X91.534 Y77.776 E34.00377
G1 X91.629 Y77.274 E34.03791
G1 X91.961 Y76.083 E34.12049
G1 X92.147 Y75.590 E34.15568
G1 X92.674 Y74.489 E34.23725
G1 X92.941 Y74.035 E34.27245
G1 X93.623 Y73.078 E34.35094
G1 X94.057 Y73.388 F7800.000
G1 X94.399 Y72.987 E34.38614 F1800.000
G1 X95.202 Y72.194 E34.46155
G1 X95.607 Y71.858 E34.49674
G1 X96.535 Y71.216 E34.57210
G1 X96.992 Y70.954 E34.60729
G1 X98.016 Y70.480 E34.68268
G1 X98.512 Y70.301 E34.71788
G1 X99.601 Y70.011 E34.79322
G1 X100.120 Y69.920 E34.82843
G1 X100.783 Y69.838 E34.87303
G1 X118.282 Y68.581 E36.04504
G1 X118.750 Y68.564 E36.07634
G1 X121.295 Y68.564 E36.24637
G1 X122.157 Y68.621 E36.30408
G1 X122.355 Y68.647 E36.31743 F1800.000
G1 X123.999 Y69.090 E36.43116
G1 X124.183 Y69.166 E36.44448
G1 X125.660 Y70.021 E36.55846
G1 X125.818 Y70.143 E36.57182
G1 X127.022 Y71.348 E36.68558
G1 X127.143 Y71.506 E36.69890
G1 X127.995 Y72.982 E36.81277
G1 X128.071 Y73.167 E36.82609
G1 X128.512 Y74.814 E36.94005
G1 X128.538 Y75.012 E36.95337
G1 X128.594 Y75.864 E37.01038
G1 X128.597 Y120.466 E39.99008
G1 X128.577 Y139.142 E41.23774
G1 X128.564 Y139.556 E41.26538
G1 X128.522 Y140.207 E41.30897
G1 X128.410 Y141.060 E41.36642
G1 X128.283 Y141.699 E41.41000
G1 X128.060 Y142.530 E41.46744
G1 X127.850 Y143.148 E41.51102
G1 X127.521 Y143.942 E41.56846
G1 X127.231 Y144.527 E41.61205
G1 X126.800 Y145.270 E41.66948
G1 X126.437 Y145.812 E41.71307
G1 X125.912 Y146.493 E41.77052
G1 X125.493 Y146.968 E41.81280
G1 X124.870 Y147.588 E41.87154
G1 X124.378 Y148.018 E41.91519
G1 X123.694 Y148.538 E41.97255
G1 X123.150 Y148.898 E42.01614
G1 X122.403 Y149.324 E42.07361
G1 X121.816 Y149.610 E42.11725
G1 X121.021 Y149.935 E42.17461
G1 X120.402 Y150.141 E42.21819
G1 X119.570 Y150.358 E42.27565
G1 X118.929 Y150.481 E42.31926
G1 X117.984 Y150.592 E42.38280
G1 X98.986 Y151.430 E43.65318
G1 X97.206 Y151.263 E43.77262
G1 X97.002 Y151.215 E43.78667
G1 X95.503 Y150.663 E43.89337
G1 X95.318 Y150.568 E43.90728
G1 X93.997 Y149.667 E44.01406
G1 X93.840 Y149.530 E44.02798
G1 X92.778 Y148.337 E44.13467
G1 X92.663 Y148.171 E44.14818
G1 X91.919 Y146.751 E44.25529
G1 X91.845 Y146.556 E44.26922
G1 X91.470 Y145.003 E44.37594
G1 X91.403 Y143.992 E44.44361
G1 X91.947 Y78.997 E48.78577
G1 X92.060 Y77.875 E48.86111
G1 X92.155 Y77.373 E48.89525
G1 X92.463 Y76.272 E48.97165
G1 X92.648 Y75.779 E49.00685
G1 X93.135 Y74.761 E49.08224
G1 X93.403 Y74.307 E49.11744
G1 X94.031 Y73.425 E49.18976
G1 E45.18976 F2400.00000
G92 E0
G1 X106.534 Y136.540 F7800.000
G1 E4.00000 F2400.00000
G1 X106.743 Y136.257 E4.02349 F1800.000
G1 X106.743 Y135.559 E4.07009
G1 X111.732 Y133.802 E4.42346
G1 X111.927 Y133.422 E4.45197
G1 X111.819 Y133.030 E4.47916
G1 X111.539 Y131.640 E4.57389
G1 X111.373 Y130.232 E4.66860
G1 X111.322 Y128.937 E4.75516
G1 X111.322 Y93.055 E7.15228
G1 X111.009 Y92.741 E7.18192
G1 X109.096 Y92.741 E7.30970
G1 X106.743 Y90.388 E7.53202
G1 X106.534 Y90.092 E7.55621
G1 X106.074 Y89.939 E7.58865
G1 X105.563 Y89.712 E7.62597
G1 X98.177 Y85.623 E8.18997
G1 X97.469 Y85.193 E8.24528
G1 X97.189 Y84.988 E8.26848
G1 X96.533 Y84.411 E8.32687
G1 X96.292 Y84.160 E8.35008
G1 X95.863 Y83.626 E8.39583
G1 X95.551 Y83.190 E8.43166
G1 X95.128 Y82.425 E8.49007
G1 X94.987 Y82.107 E8.51327
G1 X94.703 Y81.281 E8.57167
G1 X94.619 Y80.944 E8.59488
G1 X94.510 Y80.268 E8.64063
G1 X94.455 Y79.734 E8.67646
G1 X94.468 Y78.860 E8.73488
G1 X94.503 Y78.514 E8.75807
G1 X94.665 Y77.655 E8.81647
G1 X94.759 Y77.321 E8.83967
G1 X95.067 Y76.503 E8.89806
G1 X95.217 Y76.189 E8.92128
G1 X95.660 Y75.436 E8.97968
G1 X95.862 Y75.153 E9.00287
G1 X96.429 Y74.488 E9.06128
G1 X96.676 Y74.244 E9.08450
G1 X97.349 Y73.686 E9.14289
G1 X97.634 Y73.488 E9.16610
G1 X98.393 Y73.054 E9.22450
G1 X98.709 Y72.908 E9.24771
G1 X99.531 Y72.611 E9.30611
G1 X99.866 Y72.521 E9.32931
G1 X100.727 Y72.370 E9.38772
G1 X101.074 Y72.340 E9.41095
G1 X101.949 Y72.339 E9.46944
G1 X102.298 Y72.369 E9.49284
G1 X113.932 Y74.406 E10.28183
G1 X114.261 Y74.225 E10.30695
G1 X114.480 Y73.698 E10.34505
G1 X114.743 Y73.243 E10.38014
G1 X115.184 Y72.669 E10.42853
G1 X115.556 Y72.298 E10.46361
G1 X116.134 Y71.854 E10.51229
G1 X116.586 Y71.593 E10.54715
G1 X117.262 Y71.313 E10.59607
G1 X117.764 Y71.178 E10.63080
G1 X118.619 Y71.082 E10.68823
G1 X121.428 Y71.082 E10.87590
G1 X122.283 Y71.179 E10.93340
G1 X122.790 Y71.315 E10.96850
G1 X123.460 Y71.593 E11.01696
G1 X123.916 Y71.857 E11.05214
G1 X124.492 Y72.299 E11.10063
G1 X124.863 Y72.671 E11.13575
G1 X125.304 Y73.247 E11.18419
G1 X125.567 Y73.703 E11.21934
G1 X125.845 Y74.373 E11.26781
G1 X125.981 Y74.882 E11.30299
G1 X126.075 Y75.732 E11.36018
G1 X126.076 Y81.283 E11.73101
G1 X126.015 Y81.972 E11.77718
G1 X125.925 Y82.393 E11.80593
G1 X125.788 Y82.811 E11.83533
G1 X125.652 Y83.156 E11.86010
G1 X125.315 Y83.770 E11.90691
G1 X125.043 Y84.150 E11.93813
G1 X124.640 Y84.601 E11.97854
G1 X124.391 Y84.828 E12.00103
G1 X123.896 Y85.192 E12.04211
G1 X122.351 Y86.092 E12.16155
G1 X122.207 Y86.340 E12.18073
G1 X122.207 Y111.189 E13.84079
G1 X122.422 Y111.475 E13.86469
G1 X122.863 Y111.603 E13.89539
G1 X123.542 Y111.900 E13.94490
G1 X123.965 Y112.155 E13.97787
G1 X124.553 Y112.621 E14.02800
G1 X124.888 Y112.965 E14.06009
G1 X125.346 Y113.578 E14.11117
G1 X125.574 Y113.983 E14.14227
G1 X125.866 Y114.704 E14.19420
G1 X125.980 Y115.143 E14.22452
G1 X126.063 Y115.752 E14.26556
G1 X126.079 Y116.001 E14.28226
G1 X126.079 Y121.320 E14.63760
G1 X125.384 Y122.881 E14.75171
G1 X124.169 Y123.974 E14.86091
G1 X123.753 Y124.422 E14.90172
G1 X123.366 Y124.924 E14.94413
G1 X123.051 Y125.419 E14.98329
G1 X122.771 Y125.962 E15.02409
G1 X122.540 Y126.527 E15.06489
G1 X122.356 Y127.135 E15.10730
G1 X122.238 Y127.709 E15.14648
G1 X122.168 Y128.316 E15.18727
G1 X122.153 Y128.950 E15.22968
G1 X122.196 Y129.560 E15.27048
G1 X122.289 Y130.139 E15.30965
G1 X122.438 Y130.731 E15.35045
G1 X122.641 Y131.307 E15.39124
G1 X122.895 Y131.862 E15.43204
G1 X123.198 Y132.392 E15.47283
G1 X123.548 Y132.893 E15.51362
G1 X124.138 Y133.591 E15.57468
G1 X124.770 Y134.506 E15.64895
G1 X124.903 Y134.734 E15.66663
G1 X125.312 Y135.555 E15.72787
G1 X125.414 Y135.799 E15.74555
G1 X125.711 Y136.666 E15.80680
G1 X125.781 Y136.921 E15.82448
G1 X125.962 Y137.820 E15.88574
G1 X125.997 Y138.082 E15.90341
G1 X126.059 Y138.997 E15.96466
G1 X126.059 Y139.262 E15.98233
G1 X126.000 Y140.177 E16.04358
G1 X125.966 Y140.439 E16.06126
G1 X125.787 Y141.338 E16.12251
G1 X125.719 Y141.594 E16.14019
G1 X125.423 Y142.462 E16.20144
G1 X125.322 Y142.706 E16.21912
G1 X124.915 Y143.528 E16.28038
G1 X124.783 Y143.757 E16.29805
G1 X124.272 Y144.518 E16.35929
G1 X124.110 Y144.728 E16.37697
G1 X123.504 Y145.416 E16.43825
G1 X123.316 Y145.602 E16.45591
G1 X122.624 Y146.205 E16.51719
G1 X122.414 Y146.365 E16.53484
G1 X121.650 Y146.871 E16.59609
G1 X121.420 Y147.002 E16.61377
G1 X120.595 Y147.404 E16.67505
G1 X120.350 Y147.503 E16.69270
G1 X119.481 Y147.793 E16.75391
G1 X119.225 Y147.860 E16.77161
G1 X118.310 Y148.036 E16.83384
G1 X118.019 Y148.070 E16.85340
G1 X98.600 Y148.926 E18.15199
G1 X98.050 Y148.874 E18.18887
G1 X97.337 Y148.707 E18.23777
G1 X96.875 Y148.537 E18.27068
G1 X96.252 Y148.216 E18.31749
G1 X95.845 Y147.938 E18.35045
G1 X95.318 Y147.475 E18.39729
G1 X94.990 Y147.107 E18.43022
G1 X94.591 Y146.531 E18.47706
G1 X94.363 Y146.094 E18.50997
G1 X94.116 Y145.438 E18.55681
G1 X94.000 Y144.959 E18.58973
G1 X93.948 Y144.513 E18.61973
G1 X93.919 Y144.262 E18.63660
G1 X93.923 Y143.770 E18.66949
G1 X94.014 Y143.074 E18.71635
G1 X94.137 Y142.598 E18.74924
G1 X94.394 Y141.945 E18.79607
G1 X94.629 Y141.512 E18.82900
G1 X94.890 Y141.146 E18.85903
G1 X95.037 Y140.941 E18.87592
G1 X95.371 Y140.578 E18.90883
G1 X95.904 Y140.124 E18.95562
G1 X96.315 Y139.853 E18.98851
G1 X96.865 Y139.580 E19.02951
G1 X97.161 Y139.461 E19.05080
G1 X106.491 Y136.553 E19.70373
G1 X107.070 Y136.934 F7800.000
G1 X107.278 Y136.651 E19.72722 F1800.000
G1 X107.278 Y135.938 E19.77482
G1 X112.388 Y134.139 E20.13674
G1 X112.583 Y133.759 E20.16525
G1 X112.341 Y132.911 E20.22415
G1 X112.070 Y131.564 E20.31597
G1 X111.908 Y130.199 E20.40778
G1 X111.858 Y128.932 E20.49251
G1 X111.858 Y92.519 E22.92505
G1 X111.544 Y92.205 E22.95470
G1 X109.318 Y92.205 E23.10344
G1 X107.278 Y90.166 E23.29612
G1 X107.278 Y89.954 E23.31028
G1 X107.051 Y89.663 E23.33492
G1 X106.401 Y89.489 E23.37989
G1 X105.810 Y89.237 E23.42282
G1 X98.441 Y85.157 E23.98552
G1 X97.768 Y84.748 E24.03814
G1 X97.525 Y84.570 E24.05825
G1 X96.903 Y84.024 E24.11355
G1 X96.695 Y83.806 E24.13366
G1 X96.281 Y83.291 E24.17787
G1 X96.009 Y82.911 E24.20906
G1 X95.609 Y82.186 E24.26437
G1 X95.486 Y81.911 E24.28448
G1 X95.217 Y81.128 E24.33978
G1 X95.144 Y80.836 E24.35990
G1 X95.039 Y80.183 E24.40410
G1 X94.991 Y79.718 E24.43529
G1 X95.003 Y78.890 E24.49061
G1 X95.033 Y78.591 E24.51072
G1 X95.187 Y77.778 E24.56603
G1 X95.268 Y77.488 E24.58613
G1 X95.560 Y76.713 E24.64143
G1 X95.690 Y76.441 E24.66155
G1 X96.110 Y75.728 E24.71686
G1 X96.285 Y75.483 E24.73696
G1 X96.822 Y74.853 E24.79227
G1 X97.036 Y74.641 E24.81239
G1 X97.673 Y74.113 E24.86769
G1 X97.920 Y73.941 E24.88780
G1 X98.639 Y73.530 E24.94311
G1 X98.912 Y73.404 E24.96323
G1 X99.691 Y73.122 E25.01853
G1 X99.982 Y73.045 E25.03864
G1 X100.797 Y72.902 E25.09395
G1 X101.097 Y72.875 E25.11408
G1 X101.927 Y72.875 E25.16947
G1 X102.229 Y72.901 E25.18975
G1 X114.293 Y75.013 E26.00792
G1 X114.643 Y74.789 E26.03569
G1 X114.710 Y74.540 E26.05292
G1 X114.961 Y73.936 E26.09663
G1 X115.189 Y73.542 E26.12704
G1 X115.588 Y73.023 E26.17076
G1 X115.910 Y72.701 E26.20116
G1 X116.240 Y72.448 E26.22896
G1 X116.432 Y72.300 E26.24512
G1 X116.823 Y72.074 E26.27534
G1 X117.434 Y71.821 E26.31951
G1 X117.869 Y71.705 E26.34961
G1 X118.409 Y71.633 E26.38597
G1 X118.636 Y71.618 E26.40118
G1 X121.410 Y71.618 E26.58649
G1 X122.178 Y71.705 E26.63810
G1 X122.617 Y71.823 E26.66852
G1 X123.223 Y72.075 E26.71230
G1 X123.618 Y72.303 E26.74279
G1 X124.137 Y72.703 E26.78659
G1 X124.459 Y73.025 E26.81703
G1 X124.858 Y73.545 E26.86078
G1 X125.086 Y73.940 E26.89125
G1 X125.336 Y74.546 E26.93503
G1 X125.454 Y74.986 E26.96552
G1 X125.540 Y75.750 E27.01686
G1 X125.540 Y81.270 E27.38560
G1 X125.485 Y81.888 E27.42708
G1 X125.407 Y82.253 E27.45199
G1 X125.239 Y82.752 E27.48718
G1 X125.054 Y83.157 E27.51690
G1 X124.861 Y83.485 E27.54234
G1 X124.625 Y83.816 E27.56951
G1 X124.261 Y84.221 E27.60589
G1 X124.046 Y84.418 E27.62538
G1 X123.598 Y84.746 E27.66245
G1 X121.815 Y85.782 E27.80024
G1 X121.671 Y86.031 E27.81942
G1 X121.671 Y111.633 E29.52980
G1 X121.929 Y111.934 E29.55626
G1 X122.255 Y111.985 E29.57829
G1 X122.682 Y112.108 E29.60798
G1 X123.294 Y112.376 E29.65264
G1 X123.661 Y112.597 E29.68123
G1 X124.191 Y113.017 E29.72644
