; generated by Slic3r 1.2.9 on 2016-08-27 at 18:13:39

; external perimeters extrusion width = 0.30mm
; perimeters extrusion width = 0.50mm
; infill extrusion width = 0.50mm
; solid infill extrusion width = 0.50mm
; top infill extrusion width = 0.50mm
; support material extrusion width = 0.30mm

M190 S40 ; set bed temperature
M104 S220 ; set temperature
G28 ; home all axes
G1 Z5 F5000 ; lift nozzle

M109 S220 ; wait for temperature to be reached
G21 ; set units to millimeters
G90 ; use absolute coordinates
M82 ; use absolute distances for extrusion
G92 E0
G1 Z0.300 F7800.000
G1 E-4.00000 F2400.00000
G92 E0
G1 X93.257 Y72.678 F7800.000
G1 E4.00000 F2400.00000
G1 X93.599 Y72.277 E4.03521 F1800.000
G1 X94.534 Y71.355 E4.12294
G1 X94.940 Y71.019 E4.15814
G1 X96.020 Y70.272 E4.24588
G1 X96.477 Y70.010 E4.28107
G1 X97.669 Y69.460 E4.36879
G1 X98.165 Y69.281 E4.40398
G1 X99.434 Y68.944 E4.49173
G1 X99.953 Y68.853 E4.52693
G1 X100.724 Y68.758 E4.57882
G1 X118.224 Y67.512 E5.75083
G1 X118.769 Y67.493 E5.78727
G1 X121.314 Y67.495 E5.95729
G1 X122.513 Y67.588 E6.03766 F1800.000
G1 X124.429 Y68.105 E6.17023
G1 X124.613 Y68.181 E6.18355
G1 X126.331 Y69.176 E6.31615
G1 X126.489 Y69.298 E6.32947
G1 X127.889 Y70.702 E6.46191
G1 X128.010 Y70.860 E6.47523
G1 X129.001 Y72.580 E6.60783
G1 X129.077 Y72.764 E6.62115
G1 X129.589 Y74.680 E6.75366
G1 X129.615 Y74.879 E6.76704
G1 X129.679 Y75.866 E6.83312
G1 X129.680 Y114.826 E9.43586
G1 X129.638 Y139.148 E11.06070
G1 X129.580 Y140.276 E11.13612
G1 X129.450 Y141.268 E11.20300
G1 X129.323 Y141.908 E11.24658
G1 X129.064 Y142.875 E11.31342
G1 X128.854 Y143.492 E11.35702
G1 X128.470 Y144.416 E11.42386
G1 X128.180 Y145.002 E11.46748
G1 X127.679 Y145.867 E11.53430
G1 X127.315 Y146.409 E11.57788
G1 X126.704 Y147.201 E11.64474
G1 X126.273 Y147.691 E11.68833
G1 X125.563 Y148.396 E11.75519
G1 X125.070 Y148.825 E11.79885
G1 X124.275 Y149.431 E11.86561
G1 X123.730 Y149.791 E11.90924
G1 X122.861 Y150.287 E11.97609
G1 X122.274 Y150.573 E12.01975
G1 X121.348 Y150.951 E12.08651
G1 X120.729 Y151.157 E12.13009
G1 X119.761 Y151.410 E12.19697
G1 X119.120 Y151.533 E12.24058
G1 X118.020 Y151.662 E12.31454
G1 X99.022 Y152.500 E13.58492
G1 X96.952 Y152.306 E13.72385
G1 X96.745 Y152.258 E13.73801
G1 X95.002 Y151.615 E13.86218
G1 X94.816 Y151.520 E13.87609
G1 X93.279 Y150.472 E14.00034
G1 X93.123 Y150.335 E14.01427
G1 X91.886 Y148.946 E14.13848
G1 X91.768 Y148.775 E14.15243
G1 X90.905 Y147.128 E14.27661
G1 X90.832 Y146.933 E14.29053
G1 X90.394 Y145.126 E14.41474
G1 X90.321 Y143.981 E14.49140
G1 X90.888 Y78.966 E18.83489
G1 X91.020 Y77.660 E18.92261
G1 X91.118 Y77.142 E18.95781
G1 X91.474 Y75.878 E19.04555
G1 X91.660 Y75.384 E19.08076
G1 X92.227 Y74.201 E19.16846
G1 X92.495 Y73.747 E19.20365
G1 X93.231 Y72.715 E19.28834
G1 X93.665 Y73.026 F7800.000
G1 X94.007 Y72.625 E19.32354 F1800.000
G1 X94.876 Y71.768 E19.40510
G1 X95.282 Y71.432 E19.44030
G1 X96.286 Y70.737 E19.52186
G1 X96.743 Y70.475 E19.55706
G1 X97.851 Y69.964 E19.63860
G1 X98.347 Y69.785 E19.67379
G1 X99.527 Y69.472 E19.75536
G1 X100.046 Y69.381 E19.79055
G1 X100.762 Y69.293 E19.83880
G1 X118.262 Y68.046 E21.01080
G1 X118.768 Y68.029 E21.04468
G1 X121.313 Y68.030 E21.21470
G1 X122.442 Y68.119 E21.29034 F1800.000
G1 X124.223 Y68.599 E21.41358
G1 X124.407 Y68.676 E21.42690
G1 X126.004 Y69.601 E21.55016
G1 X126.162 Y69.722 E21.56348
G1 X127.463 Y71.027 E21.68660
G1 X127.585 Y71.186 E21.69992
G1 X128.505 Y72.784 E21.82318
G1 X128.582 Y72.969 E21.83650
G1 X129.057 Y74.750 E21.95968
G1 X129.083 Y74.949 E21.97306
G1 X129.143 Y75.866 E22.03448
G1 X129.144 Y114.826 E24.63723
G1 X129.102 Y139.147 E26.26201
G1 X129.045 Y140.241 E26.33518
G1 X128.924 Y141.164 E26.39735
G1 X128.797 Y141.804 E26.44093
G1 X128.557 Y142.702 E26.50307
G1 X128.347 Y143.320 E26.54666
G1 X127.990 Y144.179 E26.60880
G1 X127.700 Y144.764 E26.65241
G1 X127.234 Y145.569 E26.71453
G1 X126.871 Y146.110 E26.75811
G1 X126.303 Y146.847 E26.82026
G1 X125.871 Y147.336 E26.86385
G1 X125.211 Y147.992 E26.92601
G1 X124.718 Y148.421 E26.96966
G1 X123.979 Y148.984 E27.03171
G1 X123.435 Y149.344 E27.07534
G1 X122.627 Y149.806 E27.13748
G1 X122.039 Y150.092 E27.18114
G1 X121.179 Y150.443 E27.24320
G1 X120.560 Y150.649 E27.28678
G1 X119.660 Y150.884 E27.34895
G1 X119.019 Y151.007 E27.39256
G1 X117.997 Y151.127 E27.46131
G1 X98.999 Y151.965 E28.73169
G1 X97.074 Y151.785 E28.86084
G1 X96.868 Y151.737 E28.87498
G1 X95.247 Y151.139 E28.99041
G1 X95.062 Y151.044 E29.00432
G1 X93.633 Y150.070 E29.11982
G1 X93.476 Y149.932 E29.13375
G1 X92.327 Y148.642 E29.24922
G1 X92.208 Y148.470 E29.26316
G1 X91.406 Y146.939 E29.37860
G1 X91.333 Y146.744 E29.39252
G1 X90.927 Y145.064 E29.50798
G1 X90.856 Y143.985 E29.58022
G1 X91.423 Y78.974 E33.92350
G1 X91.546 Y77.759 E34.00504
G1 X91.645 Y77.242 E34.04024
G1 X91.975 Y76.067 E34.12180
G1 X92.161 Y75.573 E34.15700
G1 X92.688 Y74.473 E34.23853
G1 X92.956 Y74.019 E34.27373
G1 X93.639 Y73.062 E34.35224
G1 X94.072 Y73.373 F7800.000
G1 X94.414 Y72.972 E34.38744 F1800.000
G1 X95.218 Y72.180 E34.46282
G1 X95.623 Y71.844 E34.49802
G1 X96.551 Y71.202 E34.57341
G1 X97.009 Y70.941 E34.60860
G1 X98.033 Y70.468 E34.68396
G1 X98.528 Y70.289 E34.71916
G1 X99.619 Y69.999 E34.79455
G1 X100.138 Y69.908 E34.82974
G1 X100.801 Y69.827 E34.87433
G1 X118.300 Y68.581 E36.04633
G1 X118.768 Y68.564 E36.07764
G1 X121.313 Y68.566 E36.24766
G1 X122.371 Y68.650 E36.31859 F1800.000
G1 X124.018 Y69.094 E36.43249
G1 X124.202 Y69.170 E36.44581
G1 X125.677 Y70.025 E36.55973
G1 X125.835 Y70.147 E36.57305
G1 X127.038 Y71.353 E36.68685
G1 X127.159 Y71.511 E36.70017
G1 X128.010 Y72.989 E36.81409
G1 X128.087 Y73.173 E36.82741
G1 X128.526 Y74.820 E36.94126
G1 X128.552 Y75.018 E36.95463
G1 X128.608 Y75.866 E37.01140
G1 X128.608 Y114.826 E39.61415
G1 X128.566 Y139.146 E41.23887
G1 X128.511 Y140.207 E41.30980
G1 X128.399 Y141.059 E41.36726
G1 X128.272 Y141.699 E41.41084
G1 X128.049 Y142.530 E41.46827
G1 X127.839 Y143.147 E41.51186
G1 X127.510 Y143.941 E41.56930
G1 X127.220 Y144.527 E41.61290
G1 X126.789 Y145.270 E41.67032
G1 X126.426 Y145.812 E41.71390
G1 X125.901 Y146.493 E41.77134
G1 X125.469 Y146.982 E41.81493
G1 X124.859 Y147.588 E41.87238
G1 X124.367 Y148.017 E41.91603
G1 X123.683 Y148.537 E41.97338
G1 X123.139 Y148.898 E42.01700
G1 X122.392 Y149.324 E42.07444
G1 X121.805 Y149.610 E42.11809
G1 X121.010 Y149.934 E42.17545
G1 X120.391 Y150.141 E42.21903
G1 X119.559 Y150.358 E42.27649
G1 X118.918 Y150.481 E42.32010
G1 X117.973 Y150.592 E42.38364
G1 X98.975 Y151.429 E43.65402
G1 X97.196 Y151.263 E43.77339
G1 X96.990 Y151.215 E43.78752
G1 X95.492 Y150.663 E43.89419
G1 X95.307 Y150.567 E43.90811
G1 X93.986 Y149.668 E44.01486
G1 X93.830 Y149.530 E44.02879
G1 X92.767 Y148.337 E44.13551
G1 X92.649 Y148.165 E44.14945
G1 X91.908 Y146.750 E44.25615
G1 X91.834 Y146.555 E44.27006
G1 X91.459 Y145.003 E44.37678
G1 X91.392 Y143.990 E44.44460
G1 X91.959 Y78.982 E48.78766
G1 X92.073 Y77.859 E48.86303
G1 X92.171 Y77.342 E48.89822
G1 X92.476 Y76.255 E48.97361
G1 X92.662 Y75.762 E49.00881
G1 X93.149 Y74.745 E49.08417
G1 X93.417 Y74.291 E49.11936
G1 X94.046 Y73.410 E49.19170
G1 E45.19170 F2400.00000
G92 E0
G1 X106.731 Y133.042 F7800.000
G1 E4.00000 F2400.00000
G1 X111.302 Y132.184 E4.31069 F1800.000
G1 X111.553 Y131.842 E4.33901
G1 X111.375 Y130.394 E4.43648
G1 X111.311 Y128.937 E4.53392
G1 X111.311 Y95.905 E6.74065
G1 X110.997 Y95.591 E6.77029
G1 X109.084 Y95.591 E6.89807
G1 X106.731 Y93.238 E7.12039
G1 X106.731 Y90.363 E7.31247
G1 X106.523 Y90.079 E7.33596
G1 X106.079 Y89.931 E7.36721
G1 X105.568 Y89.704 E7.40458
G1 X98.184 Y85.611 E7.96857
G1 X97.477 Y85.181 E8.02387
G1 X97.197 Y84.975 E8.04708
G1 X96.541 Y84.397 E8.10549
G1 X96.301 Y84.146 E8.12870
G1 X95.753 Y83.464 E8.18709
G1 X95.560 Y83.176 E8.21030
G1 X95.138 Y82.410 E8.26870
G1 X94.997 Y82.093 E8.29190
G1 X94.713 Y81.266 E8.35030
G1 X94.629 Y80.929 E8.37351
G1 X94.491 Y80.066 E8.43193
G1 X94.467 Y79.719 E8.45512
G1 X94.479 Y78.845 E8.51352
G1 X94.515 Y78.500 E8.53672
G1 X94.678 Y77.641 E8.59512
G1 X94.772 Y77.306 E8.61833
G1 X95.080 Y76.488 E8.67674
G1 X95.230 Y76.175 E8.69994
G1 X95.674 Y75.422 E8.75834
G1 X95.876 Y75.140 E8.78154
G1 X96.443 Y74.474 E8.83994
G1 X96.691 Y74.230 E8.86315
G1 X97.364 Y73.673 E8.92155
G1 X97.650 Y73.475 E8.94477
G1 X98.409 Y73.041 E9.00317
G1 X98.724 Y72.896 E9.02637
G1 X99.546 Y72.599 E9.08477
G1 X99.882 Y72.510 E9.10799
G1 X100.743 Y72.359 E9.16639
G1 X101.089 Y72.329 E9.18960
G1 X101.965 Y72.329 E9.24811
G1 X102.314 Y72.359 E9.27151
G1 X113.946 Y74.403 E10.06050
G1 X114.276 Y74.222 E10.08562
G1 X114.495 Y73.695 E10.12373
G1 X114.758 Y73.241 E10.15879
G1 X115.200 Y72.667 E10.20718
G1 X115.571 Y72.296 E10.24226
G1 X116.150 Y71.852 E10.29097
G1 X116.603 Y71.591 E10.32592
G1 X117.279 Y71.312 E10.37476
G1 X117.780 Y71.178 E10.40943
G1 X118.635 Y71.083 E10.46690
G1 X122.849 Y71.085 E10.74841
G1 X123.239 Y71.475 E10.78526
G1 X123.933 Y71.861 E10.83826
G1 X124.507 Y72.303 E10.88671
G1 X124.879 Y72.675 E10.92184
G1 X125.320 Y73.251 E10.97030
G1 X125.582 Y73.707 E11.00547
G1 X125.859 Y74.378 E11.05393
G1 X125.995 Y74.886 E11.08907
G1 X126.089 Y75.737 E11.14627
G1 X126.086 Y81.288 E11.51711
G1 X126.025 Y81.977 E11.56328
G1 X125.935 Y82.397 E11.59200
G1 X125.797 Y82.815 E11.62139
G1 X125.661 Y83.160 E11.64621
G1 X125.323 Y83.775 E11.69308
G1 X125.052 Y84.154 E11.72421
G1 X124.649 Y84.604 E11.76457
G1 X124.400 Y84.832 E11.78709
G1 X123.899 Y85.198 E11.82858
G1 X122.360 Y86.093 E11.94749
G1 X122.216 Y86.341 E11.96668
G1 X122.216 Y109.672 E13.52528
G1 X122.396 Y109.942 E13.54695
G1 X123.962 Y110.594 E13.66027
G1 X124.854 Y111.493 E13.74491
G1 X125.134 Y111.847 E13.77506
G1 X125.499 Y112.433 E13.82113
G1 X125.693 Y112.840 E13.85125
G1 X125.918 Y113.491 E13.89727
G1 X126.016 Y113.931 E13.92741
G1 X126.090 Y114.729 E13.98096
G1 X126.065 Y121.332 E14.42203
G1 X125.370 Y122.883 E14.53560
G1 X124.158 Y123.974 E14.64453
G1 X123.742 Y124.421 E14.68533
G1 X123.369 Y124.904 E14.72612
G1 X123.028 Y125.440 E14.76853
G1 X122.760 Y125.961 E14.80771
G1 X122.529 Y126.527 E14.84851
G1 X122.351 Y127.111 E14.88930
G1 X122.227 Y127.709 E14.93009
G1 X122.155 Y128.340 E14.97251
G1 X122.142 Y128.950 E15.01330
G1 X122.185 Y129.559 E15.05410
G1 X122.278 Y130.138 E15.09327
G1 X122.428 Y130.730 E15.13406
G1 X122.630 Y131.307 E15.17486
G1 X122.884 Y131.862 E15.21566
G1 X123.200 Y132.412 E15.25807
G1 X123.552 Y132.912 E15.29886
G1 X124.258 Y133.765 E15.37286
G1 X124.759 Y134.505 E15.43257
G1 X124.892 Y134.734 E15.45025
G1 X125.301 Y135.554 E15.51148
G1 X125.403 Y135.798 E15.52916
G1 X125.701 Y136.666 E15.59042
G1 X125.770 Y136.921 E15.60810
G1 X125.951 Y137.820 E15.66935
G1 X125.986 Y138.082 E15.68702
G1 X126.048 Y138.997 E15.74827
G1 X126.048 Y139.261 E15.76594
G1 X125.989 Y140.177 E15.82720
G1 X125.955 Y140.439 E15.84488
G1 X125.776 Y141.338 E15.90612
G1 X125.708 Y141.594 E15.92380
G1 X125.412 Y142.462 E15.98507
G1 X125.311 Y142.706 E16.00274
G1 X124.972 Y143.392 E16.05386
G1 X124.772 Y143.757 E16.08165
G1 X124.261 Y144.518 E16.14290
G1 X124.099 Y144.728 E16.16058
G1 X123.493 Y145.416 E16.22184
G1 X123.305 Y145.602 E16.23951
G1 X122.613 Y146.205 E16.30079
G1 X122.403 Y146.364 E16.31844
G1 X121.638 Y146.871 E16.37971
G1 X121.409 Y147.002 E16.39738
G1 X120.721 Y147.337 E16.44851
G1 X120.339 Y147.503 E16.47630
G1 X119.470 Y147.793 E16.53750
G1 X119.214 Y147.860 E16.55520
G1 X118.299 Y148.035 E16.61743
G1 X118.008 Y148.070 E16.63698
G1 X98.589 Y148.926 E17.93557
G1 X98.039 Y148.874 E17.97243
G1 X97.326 Y148.707 E18.02136
G1 X96.864 Y148.537 E18.05427
G1 X96.242 Y148.216 E18.10106
G1 X95.834 Y147.938 E18.13402
G1 X95.307 Y147.475 E18.18088
G1 X94.979 Y147.107 E18.21380
G1 X94.580 Y146.530 E18.26065
G1 X94.352 Y146.094 E18.29357
G1 X94.105 Y145.438 E18.34038
G1 X93.989 Y144.959 E18.37331
G1 X93.937 Y144.513 E18.40329
G1 X93.908 Y144.262 E18.42019
G1 X93.912 Y143.770 E18.45308
G1 X94.003 Y143.074 E18.49994
G1 X94.126 Y142.597 E18.53283
G1 X94.383 Y141.945 E18.57969
G1 X94.618 Y141.512 E18.61261
G1 X95.026 Y140.941 E18.65949
G1 X95.360 Y140.578 E18.69241
G1 X95.893 Y140.124 E18.73918
G1 X96.304 Y139.853 E18.77208
G1 X106.346 Y134.835 E19.52202
G1 X106.500 Y134.798 E19.53263
G1 X106.731 Y134.506 E19.55752
G1 X106.731 Y133.087 E19.65231
G1 X107.267 Y133.487 F7800.000
G1 X111.940 Y132.610 E19.96998 F1800.000
G1 X112.191 Y132.236 E19.99999
G1 X112.058 Y131.564 E20.04581
G1 X111.908 Y130.340 E20.12818
G1 X111.847 Y128.931 E20.22236
G1 X111.847 Y95.369 E22.46450
G1 X111.533 Y95.055 E22.49414
G1 X109.306 Y95.055 E22.64288
G1 X107.267 Y93.016 E22.83556
G1 X107.267 Y89.943 E23.04086
G1 X107.040 Y89.652 E23.06549
G1 X106.407 Y89.482 E23.10928
G1 X105.816 Y89.229 E23.15226
G1 X98.449 Y85.145 E23.71495
G1 X97.776 Y84.736 E23.76756
G1 X97.534 Y84.557 E23.78768
G1 X96.912 Y84.010 E23.84300
G1 X96.704 Y83.793 E23.86311
G1 X96.186 Y83.147 E23.91841
G1 X96.018 Y82.897 E23.93852
G1 X95.699 Y82.318 E23.98272
G1 X95.496 Y81.897 E24.01391
G1 X95.227 Y81.114 E24.06921
G1 X95.154 Y80.822 E24.08933
G1 X95.024 Y80.004 E24.14465
G1 X95.002 Y79.704 E24.16475
G1 X95.015 Y78.876 E24.22005
G1 X95.045 Y78.577 E24.24017
G1 X95.199 Y77.763 E24.29547
G1 X95.281 Y77.473 E24.31559
G1 X95.573 Y76.699 E24.37090
G1 X95.703 Y76.427 E24.39101
G1 X96.124 Y75.714 E24.44631
G1 X96.299 Y75.469 E24.46641
G1 X96.836 Y74.839 E24.52172
G1 X97.050 Y74.628 E24.54184
G1 X97.688 Y74.100 E24.59715
G1 X97.935 Y73.928 E24.61727
G1 X98.654 Y73.518 E24.67257
G1 X98.928 Y73.392 E24.69268
G1 X99.706 Y73.111 E24.74799
G1 X99.997 Y73.033 E24.76811
G1 X100.813 Y72.891 E24.82341
G1 X101.113 Y72.865 E24.84353
G1 X101.942 Y72.864 E24.89893
G1 X102.245 Y72.891 E24.91921
G1 X114.307 Y75.010 E25.73737
G1 X114.658 Y74.787 E25.76515
G1 X114.725 Y74.538 E25.78237
G1 X114.976 Y73.934 E25.82610
G1 X115.204 Y73.540 E25.85649
G1 X115.603 Y73.021 E25.90020
G1 X115.925 Y72.700 E25.93060
G1 X116.448 Y72.299 E25.97460
G1 X116.840 Y72.073 E26.00488
G1 X117.451 Y71.821 E26.04899
G1 X117.885 Y71.704 E26.07904
G1 X118.652 Y71.618 E26.13061
G1 X122.627 Y71.621 E26.39614
G1 X122.935 Y71.929 E26.42527
G1 X123.023 Y71.988 E26.43230
G1 X123.239 Y72.078 E26.44795
G1 X123.634 Y72.306 E26.47843
G1 X124.153 Y72.706 E26.52220
G1 X124.475 Y73.029 E26.55264
G1 X124.873 Y73.549 E26.59641
G1 X125.101 Y73.944 E26.62690
G1 X125.351 Y74.550 E26.67067
G1 X125.469 Y74.990 E26.70112
G1 X125.554 Y75.754 E26.75248
G1 X125.551 Y81.274 E27.12122
G1 X125.495 Y81.892 E27.16270
G1 X125.417 Y82.257 E27.18759
G1 X125.248 Y82.756 E27.22279
G1 X125.063 Y83.161 E27.25258
G1 X124.869 Y83.490 E27.27803
G1 X124.634 Y83.819 E27.30512
G1 X124.270 Y84.224 E27.34145
G1 X124.055 Y84.422 E27.36097
G1 X123.602 Y84.752 E27.39840
G1 X121.824 Y85.783 E27.53572
G1 X121.680 Y86.032 E27.55491
G1 X121.680 Y110.198 E29.16935
G1 X121.994 Y110.512 E29.19899
G1 X122.372 Y110.512 E29.22422
G1 X123.657 Y111.047 E29.31723
G1 X124.453 Y111.849 E29.39270
G1 X124.695 Y112.156 E29.41884
G1 X125.028 Y112.690 E29.46088
G1 X125.196 Y113.043 E29.48698
G1 X125.401 Y113.637 E29.52899
G1 X125.487 Y114.019 E29.55512
G1 X125.555 Y114.742 E29.60365
G1 X125.529 Y121.216 E30.03615
G1 X124.927 Y122.561 E30.13457
G1 X123.782 Y123.592 E30.23755
G1 X123.333 Y124.075 E30.28160
G1 X122.929 Y124.596 E30.32563
G1 X122.563 Y125.173 E30.37128
G1 X122.262 Y125.760 E30.41533
G1 X122.024 Y126.348 E30.45775
G1 X121.832 Y126.979 E30.50178
G1 X121.697 Y127.624 E30.54583
G1 X121.620 Y128.303 E30.59148
G1 X121.606 Y128.963 E30.63552
G1 X121.652 Y129.620 E30.67956
G1 X121.753 Y130.247 E30.72198
G1 X121.914 Y130.886 E30.76602
