; generated by Slic3r 1.2.9 on 2016-08-27 at 18:34:34

; external perimeters extrusion width = 0.30mm
; perimeters extrusion width = 0.50mm
; infill extrusion width = 0.50mm
; solid infill extrusion width = 0.50mm
; top infill extrusion width = 0.50mm
; support material extrusion width = 0.30mm

M190 S40 ; set bed temperature
M104 S220 ; set temperature
G28 ; home all axes
G1 Z5 F5000 ; lift nozzle

M109 S220 ; wait for temperature to be reached
G21 ; set units to millimeters
G90 ; use absolute coordinates
M82 ; use absolute distances for extrusion
G92 E0
G1 Z0.300 F7800.000
G1 E-4.00000 F2400.00000
G92 E0
G1 X93.257 Y72.678 F7800.000
G1 E4.00000 F2400.00000
G1 X93.599 Y72.277 E4.03521 F1800.000
G1 X94.535 Y71.355 E4.12294
G1 X94.940 Y71.019 E4.15814
G1 X96.020 Y70.272 E4.24589
G1 X96.478 Y70.010 E4.28109
G1 X97.670 Y69.460 E4.36879
G1 X98.165 Y69.281 E4.40399
G1 X99.435 Y68.944 E4.49173
G1 X99.954 Y68.853 E4.52693
G1 X100.725 Y68.758 E4.57882
G1 X118.224 Y67.512 E5.75083
G1 X118.769 Y67.493 E5.78727
G1 X121.314 Y67.495 E5.95729
G1 X122.514 Y67.588 E6.03766 F1800.000
G1 X124.430 Y68.105 E6.17023
G1 X124.614 Y68.181 E6.18355
G1 X126.331 Y69.176 E6.31615
G1 X126.489 Y69.298 E6.32947
G1 X127.889 Y70.702 E6.46190
G1 X128.010 Y70.860 E6.47522
G1 X129.001 Y72.580 E6.60785
G1 X129.077 Y72.764 E6.62117
G1 X129.589 Y74.680 E6.75365
G1 X129.615 Y74.879 E6.76704
G1 X129.679 Y75.870 E6.83337
G1 X129.638 Y139.143 E11.06037
G1 X129.580 Y140.276 E11.13611
G1 X129.450 Y141.268 E11.20300
G1 X129.323 Y141.908 E11.24658
G1 X129.064 Y142.875 E11.31342
G1 X128.854 Y143.492 E11.35700
G1 X128.470 Y144.416 E11.42386
G1 X128.181 Y145.001 E11.46746
G1 X127.679 Y145.867 E11.53430
G1 X127.316 Y146.409 E11.57788
G1 X126.705 Y147.201 E11.64474
G1 X126.273 Y147.691 E11.68833
G1 X125.563 Y148.396 E11.75519
G1 X125.070 Y148.825 E11.79884
G1 X124.275 Y149.431 E11.86560
G1 X123.731 Y149.791 E11.90920
G1 X122.862 Y150.287 E11.97609
G1 X122.274 Y150.573 E12.01974
G1 X121.349 Y150.951 E12.08651
G1 X120.730 Y151.157 E12.13009
G1 X119.761 Y151.410 E12.19696
G1 X119.120 Y151.533 E12.24058
G1 X118.021 Y151.662 E12.31454
G1 X99.023 Y152.500 E13.58492
G1 X96.952 Y152.306 E13.72389
G1 X96.746 Y152.258 E13.73800
G1 X95.002 Y151.615 E13.86217
G1 X94.817 Y151.520 E13.87609
G1 X93.280 Y150.472 E14.00034
G1 X93.123 Y150.335 E14.01427
G1 X91.887 Y148.946 E14.13848
G1 X91.768 Y148.775 E14.15243
G1 X90.906 Y147.128 E14.27661
G1 X90.832 Y146.933 E14.29053
G1 X90.395 Y145.126 E14.41473
G1 X90.321 Y143.981 E14.49140
G1 X90.888 Y78.966 E18.83489
G1 X91.021 Y77.660 E18.92261
G1 X91.119 Y77.142 E18.95780
G1 X91.474 Y75.878 E19.04554
G1 X91.660 Y75.384 E19.08075
G1 X92.227 Y74.201 E19.16846
G1 X92.495 Y73.747 E19.20365
G1 X93.231 Y72.715 E19.28834
G1 X93.665 Y73.026 F7800.000
G1 X94.007 Y72.625 E19.32354 F1800.000
G1 X94.876 Y71.768 E19.40510
G1 X95.282 Y71.432 E19.44030
G1 X96.286 Y70.737 E19.52186
G1 X96.744 Y70.475 E19.55707
G1 X97.852 Y69.964 E19.63859
G1 X98.347 Y69.785 E19.67379
G1 X99.527 Y69.472 E19.75536
G1 X100.046 Y69.381 E19.79055
G1 X100.763 Y69.293 E19.83879
G1 X118.262 Y68.046 E21.01080
G1 X118.769 Y68.029 E21.04467
G1 X121.314 Y68.030 E21.21469
G1 X122.443 Y68.119 E21.29034 F1800.000
G1 X124.224 Y68.599 E21.41358
G1 X124.408 Y68.676 E21.42690
G1 X126.004 Y69.601 E21.55016
G1 X126.162 Y69.722 E21.56348
G1 X127.464 Y71.027 E21.68658
G1 X127.585 Y71.185 E21.69990
G1 X128.506 Y72.785 E21.82319
G1 X128.582 Y72.969 E21.83652
G1 X129.058 Y74.750 E21.95967
G1 X129.084 Y74.949 E21.97306
G1 X129.144 Y75.870 E22.03471
G1 X129.102 Y139.143 E26.26169
G1 X129.046 Y140.241 E26.33517
G1 X128.925 Y141.164 E26.39734
G1 X128.798 Y141.804 E26.44092
G1 X128.557 Y142.702 E26.50306
G1 X128.347 Y143.320 E26.54664
G1 X127.990 Y144.179 E26.60879
G1 X127.701 Y144.764 E26.65239
G1 X127.234 Y145.569 E26.71453
G1 X126.871 Y146.110 E26.75811
G1 X126.303 Y146.847 E26.82026
G1 X125.871 Y147.336 E26.86385
G1 X125.211 Y147.992 E26.92600
G1 X124.719 Y148.421 E26.96965
G1 X123.979 Y148.984 E27.03171
G1 X123.435 Y149.344 E27.07531
G1 X122.627 Y149.806 E27.13748
G1 X122.040 Y150.092 E27.18113
G1 X121.179 Y150.443 E27.24320
G1 X120.560 Y150.649 E27.28678
G1 X119.660 Y150.884 E27.34894
G1 X119.019 Y151.007 E27.39256
G1 X117.997 Y151.127 E27.46130
G1 X98.999 Y151.965 E28.73169
G1 X97.074 Y151.785 E28.86087
G1 X96.868 Y151.737 E28.87497
G1 X95.247 Y151.139 E28.99040
G1 X95.062 Y151.044 E29.00432
G1 X93.633 Y150.070 E29.11982
G1 X93.477 Y149.932 E29.13374
G1 X92.327 Y148.642 E29.24921
G1 X92.209 Y148.470 E29.26315
G1 X91.407 Y146.939 E29.37859
G1 X91.333 Y146.744 E29.39251
G1 X90.927 Y145.064 E29.50797
G1 X90.857 Y143.985 E29.58022
G1 X91.423 Y78.974 E33.92349
G1 X91.547 Y77.759 E34.00504
G1 X91.645 Y77.242 E34.04023
G1 X91.975 Y76.067 E34.12179
G1 X92.161 Y75.573 E34.15700
G1 X92.689 Y74.473 E34.23853
G1 X92.956 Y74.019 E34.27372
G1 X93.639 Y73.062 E34.35223
G1 X94.073 Y73.373 F7800.000
G1 X94.415 Y72.972 E34.38744 F1800.000
G1 X95.218 Y72.180 E34.46282
G1 X95.624 Y71.844 E34.49801
G1 X96.552 Y71.202 E34.57340
G1 X97.009 Y70.941 E34.60860
G1 X98.033 Y70.468 E34.68396
G1 X98.529 Y70.289 E34.71915
G1 X99.620 Y69.999 E34.79454
G1 X100.138 Y69.908 E34.82973
G1 X100.801 Y69.827 E34.87432
G1 X118.300 Y68.581 E36.04633
G1 X118.768 Y68.564 E36.07764
G1 X121.314 Y68.566 E36.24766
G1 X122.372 Y68.650 E36.31858 F1800.000
G1 X124.018 Y69.094 E36.43248
G1 X124.202 Y69.170 E36.44581
G1 X125.678 Y70.025 E36.55973
G1 X125.836 Y70.147 E36.57305
G1 X127.038 Y71.353 E36.68683
G1 X127.160 Y71.511 E36.70015
G1 X128.011 Y72.989 E36.81410
G1 X128.087 Y73.173 E36.82742
G1 X128.527 Y74.820 E36.94125
G1 X128.553 Y75.018 E36.95463
G1 X128.608 Y75.869 E37.01161
G1 X128.567 Y139.142 E41.23857
G1 X128.511 Y140.207 E41.30979
G1 X128.399 Y141.059 E41.36725
G1 X128.272 Y141.699 E41.41083
G1 X128.050 Y142.530 E41.46826
G1 X127.840 Y143.147 E41.51185
G1 X127.510 Y143.941 E41.56929
G1 X127.221 Y144.526 E41.61289
G1 X126.790 Y145.270 E41.67031
G1 X126.426 Y145.812 E41.71390
G1 X125.901 Y146.493 E41.77134
G1 X125.470 Y146.982 E41.81493
G1 X124.860 Y147.588 E41.87237
G1 X124.367 Y148.017 E41.91601
G1 X123.684 Y148.537 E41.97337
G1 X123.156 Y148.887 E42.01566
G1 X122.393 Y149.324 E42.07443
G1 X121.805 Y149.610 E42.11807
G1 X121.010 Y149.934 E42.17544
G1 X120.391 Y150.141 E42.21902
G1 X119.559 Y150.358 E42.27648
G1 X118.918 Y150.481 E42.32009
G1 X117.973 Y150.592 E42.38363
G1 X98.976 Y151.429 E43.65401
G1 X97.196 Y151.263 E43.77341
G1 X96.991 Y151.215 E43.78750
G1 X95.492 Y150.663 E43.89418
G1 X95.307 Y150.567 E43.90810
G1 X93.987 Y149.668 E44.01485
G1 X93.830 Y149.530 E44.02878
G1 X92.768 Y148.337 E44.13550
G1 X92.649 Y148.165 E44.14944
G1 X91.908 Y146.750 E44.25614
G1 X91.835 Y146.555 E44.27005
G1 X91.459 Y145.003 E44.37677
G1 X91.392 Y143.990 E44.44459
G1 X91.959 Y78.982 E48.78765
G1 X92.073 Y77.859 E48.86302
G1 X92.171 Y77.342 E48.89821
G1 X92.477 Y76.255 E48.97360
G1 X92.662 Y75.762 E49.00880
G1 X93.150 Y74.745 E49.08416
G1 X93.418 Y74.291 E49.11935
G1 X94.046 Y73.410 E49.19169
G1 E45.19169 F2400.00000
G92 E0
G1 X112.120 Y142.179 F7800.000
G1 E4.00000 F2400.00000
G1 X112.120 Y141.674 E4.03372 F1800.000
G1 X114.714 Y141.674 E4.20699
G1 X115.010 Y141.941 E4.23362
G1 X115.616 Y142.301 E4.28070
G1 X116.177 Y142.495 E4.32037
G1 X116.138 Y142.758 E4.33813
G1 X101.854 Y143.388 E5.29335
G1 X101.789 Y143.136 E5.31073
G1 X107.240 Y140.412 E5.71785
G1 X107.240 Y142.179 E5.83592
G1 X112.075 Y142.179 E6.15894
G1 E2.15894 F2400.00000
G92 E0
G1 X116.700 Y126.403 F7800.000
G1 E4.00000 F2400.00000
G1 X116.700 Y117.165 E4.61719 F1800.000
G1 X116.936 Y117.100 E4.63357
G1 X117.237 Y117.608 E4.67304
G1 X117.730 Y117.969 E4.71380
G1 X118.270 Y118.114 E4.75120
G1 X120.035 Y118.114 E4.86913
G1 X120.680 Y117.868 E4.91522
G1 X120.680 Y119.855 E5.04798
G1 X120.363 Y120.141 E5.07647
G1 X119.616 Y120.947 E5.14990
G1 X118.964 Y121.793 E5.22128
G1 X118.356 Y122.744 E5.29665
G1 X117.852 Y123.723 E5.37021
G1 X117.439 Y124.742 E5.44365
G1 X117.120 Y125.794 E5.51709
G1 X116.988 Y126.433 E5.56069
G1 X116.744 Y126.408 E5.57707
G1 X116.828 Y90.203 F7800.000
G1 X112.120 Y90.203 E5.89160 F1800.000
G1 X112.120 Y83.432 E6.34389
G1 X116.828 Y84.267 E6.66332
G1 X116.828 Y90.158 E7.05685
G1 E3.05685 F2400.00000
G92 E0
G1 X120.128 Y80.195 F7800.000
G1 E4.00000 F2400.00000
G1 X120.699 Y79.649 E4.05278 F1800.000
G1 X120.699 Y80.195 E4.08927
G1 X120.173 Y80.195 E4.12441
G1 E0.12441 F2400.00000
G92 E0
G1 X107.257 Y83.451 F7800.000
G1 E4.00000 F2400.00000
G1 X107.257 Y84.479 E4.06867 F1800.000
G1 X102.919 Y82.074 E4.40002
G1 X103.010 Y81.817 E4.41821
G1 X110.571 Y83.158 E4.93120
G1 X110.545 Y83.451 E4.95087
G1 X107.302 Y83.451 E5.16754
G1 X101.258 Y80.867 F7800.000
G1 X101.087 Y81.059 E5.18471 F1800.000
G1 X100.536 Y80.735 E5.22738
G1 X100.319 Y80.544 E5.24670
G1 X100.138 Y80.318 E5.26602
G1 X99.999 Y80.065 E5.28534
G1 X99.909 Y79.803 E5.30384
G1 X99.859 Y79.503 E5.32419
G1 X99.863 Y79.217 E5.34328
G1 X99.917 Y78.933 E5.36260
G1 X100.019 Y78.662 E5.38192
G1 X100.166 Y78.413 E5.40124
G1 X100.354 Y78.193 E5.42056
G1 X100.577 Y78.009 E5.43988
G1 X100.828 Y77.865 E5.45920
G1 X101.100 Y77.767 E5.47852
G1 X101.385 Y77.717 E5.49784
G1 X101.670 Y77.717 E5.51691
G1 X101.743 Y77.939 E5.53248
G1 X101.519 Y78.102 E5.55101
G1 X101.167 Y78.550 E5.58904
G1 X100.950 Y79.040 E5.62481
G1 X100.861 Y79.589 E5.66197
G1 X100.918 Y80.153 E5.69984
G1 X101.126 Y80.682 E5.73784
G1 X101.232 Y80.830 E5.74999
G1 X107.792 Y83.987 F7800.000
G1 X107.792 Y85.388 E5.84363 F1800.000
G1 X100.590 Y81.395 E6.39377
G1 X100.218 Y81.168 E6.42294
G1 X99.931 Y80.916 E6.44846
G1 X99.691 Y80.618 E6.47398
G1 X99.507 Y80.283 E6.49950
G1 X99.387 Y79.935 E6.52411
G1 X99.323 Y79.543 E6.55067
G1 X99.328 Y79.163 E6.57604
G1 X99.400 Y78.787 E6.60156
G1 X99.534 Y78.430 E6.62708
G1 X99.729 Y78.101 E6.65260
G1 X99.976 Y77.810 E6.67813
G1 X100.271 Y77.567 E6.70365
G1 X100.602 Y77.377 E6.72917
G1 X100.962 Y77.248 E6.75468
G1 X101.338 Y77.182 E6.78020
G1 X101.719 Y77.182 E6.80568
G1 X118.400 Y80.112 E7.93709
G1 X118.948 Y80.074 E7.97384
G1 X119.468 Y79.912 E8.01021
G1 X119.938 Y79.636 E8.04659
G1 X120.331 Y79.260 E8.08295
G1 X120.628 Y78.804 E8.11933
G1 X120.813 Y78.292 E8.15570
G1 X120.871 Y77.799 E8.18882
G1 X120.871 Y76.795 E8.25591
G1 X118.836 Y76.435 E8.39403
G1 X118.836 Y75.935 E8.42738
G1 X121.237 Y75.937 E8.58776
G1 X121.234 Y81.141 E8.93543
G1 X120.360 Y81.642 E9.00271
G1 X120.353 Y80.731 E9.06358
G1 X118.267 Y80.729 E9.20293
G1 X103.045 Y78.041 E10.23563
G1 X102.607 Y78.096 E10.26508
G1 X102.235 Y78.242 E10.29175
G1 X101.895 Y78.491 E10.31997
G1 X101.630 Y78.829 E10.34862
G1 X101.468 Y79.194 E10.37530
G1 X101.401 Y79.605 E10.40313
G1 X101.444 Y80.026 E10.43139
G1 X101.601 Y80.425 E10.46003
G1 X101.833 Y80.749 E10.48670
G1 X102.154 Y81.015 E10.51454
G1 X102.531 Y81.189 E10.54228
G1 X117.364 Y83.818 E11.54863
G1 X117.364 Y116.560 E13.73597
G1 X117.413 Y116.854 E13.75589
G1 X117.642 Y117.241 E13.78595
G1 X117.965 Y117.478 E13.81271
G1 X118.341 Y117.579 E13.83870
G1 X119.937 Y117.579 E13.94530
G1 X120.391 Y117.405 E13.97779
G1 X120.721 Y116.935 E14.01620
G1 X120.917 Y115.585 E14.10730
G1 X121.216 Y115.607 E14.12727
G1 X121.216 Y120.094 E14.42704
G1 X120.739 Y120.523 E14.46985
G1 X120.025 Y121.293 E14.54004
G1 X119.402 Y122.102 E14.60822
G1 X118.821 Y123.011 E14.68035
G1 X118.339 Y123.946 E14.75061
G1 X117.945 Y124.920 E14.82080
G1 X117.640 Y125.926 E14.89100
G1 X117.428 Y126.955 E14.96119
G1 X117.309 Y127.999 E15.03138
G1 X117.285 Y129.049 E15.10158
G1 X117.357 Y130.098 E15.17177
G1 X117.523 Y131.135 E15.24196
G1 X117.783 Y132.153 E15.31216
G1 X118.133 Y133.144 E15.38235
G1 X118.572 Y134.099 E15.45255
G1 X119.095 Y135.010 E15.52274
G1 X119.698 Y135.870 E15.59293
G1 X120.323 Y136.608 E15.65756
G1 X120.632 Y137.066 E15.69443
G1 X120.874 Y137.551 E15.73066
G1 X121.050 Y138.064 E15.76688
G1 X121.157 Y138.595 E15.80310
G1 X121.194 Y139.136 E15.83932
G1 X121.159 Y139.677 E15.87554
G1 X121.053 Y140.209 E15.91176
G1 X120.879 Y140.723 E15.94799
G1 X120.638 Y141.209 E15.98421
G1 X120.336 Y141.659 E16.02043
G1 X119.977 Y142.065 E16.05665
G1 X119.569 Y142.422 E16.09288
G1 X119.116 Y142.721 E16.12910
G1 X118.629 Y142.958 E16.16532
G1 X118.114 Y143.129 E16.20155
G1 X117.588 Y143.231 E16.23737
G1 X99.363 Y144.034 E17.45605
G1 X99.298 Y143.782 E17.47343
G1 X107.775 Y139.545 E18.10655
G1 X107.775 Y141.644 E18.24673
G1 X111.584 Y141.644 E18.50119
G1 X111.584 Y141.139 E18.53492
G1 X114.919 Y141.139 E18.75770
G1 X115.329 Y141.508 E18.79455
G1 X115.842 Y141.813 E18.83443
G1 X116.410 Y142.009 E18.87453
G1 X117.005 Y142.086 E18.91463
G1 X117.603 Y142.041 E18.95472
G1 X118.180 Y141.875 E18.99482
G1 X118.712 Y141.596 E19.03491
G1 X119.175 Y141.215 E19.07501
G1 X119.552 Y140.748 E19.11510
G1 X119.827 Y140.214 E19.15520
G1 X119.988 Y139.636 E19.19530
G1 X120.028 Y139.037 E19.23539
G1 X119.946 Y138.443 E19.27549
G1 X119.746 Y137.877 E19.31559
G1 X119.447 Y137.385 E19.35405
G1 X118.735 Y136.522 E19.42878
G1 X118.149 Y135.683 E19.49716
G1 X117.633 Y134.799 E19.56555
G1 X117.190 Y133.876 E19.63393
G1 X116.824 Y132.920 E19.70231
G1 X116.537 Y131.937 E19.77070
G1 X116.331 Y130.935 E19.83908
G1 X116.206 Y129.919 E19.90747
G1 X116.164 Y128.879 E19.97699
G1 X116.164 Y90.738 E22.52500
G1 X111.584 Y90.738 E22.83094
G1 X111.584 Y83.987 E23.28199
G1 X107.837 Y83.987 E23.53231
G1 X108.328 Y84.522 F7800.000
G1 X108.328 Y85.928 E23.62620 F1800.000
G1 X107.790 Y85.928 E23.66216
G1 X107.713 Y85.920 E23.66733
G1 X107.547 Y85.864 E23.67904
G1 X100.321 Y81.858 E24.23099
G1 X99.899 Y81.601 E24.26403
G1 X99.542 Y81.287 E24.29575
G1 X99.245 Y80.917 E24.32747
G1 X99.016 Y80.501 E24.35919
G1 X98.866 Y80.066 E24.38991
G1 X98.787 Y79.582 E24.42266
G1 X98.794 Y79.108 E24.45433
G1 X98.882 Y78.642 E24.48605
G1 X99.050 Y78.198 E24.51777
G1 X99.291 Y77.789 E24.54949
G1 X99.599 Y77.427 E24.58121
G1 X99.965 Y77.125 E24.61293
G1 X100.377 Y76.889 E24.64465
G1 X100.824 Y76.728 E24.67637
G1 X101.291 Y76.646 E24.70809
G1 X101.766 Y76.646 E24.73980
G1 X118.428 Y79.573 E25.86994
G1 X118.849 Y79.544 E25.89815
G1 X119.250 Y79.419 E25.92623
G1 X119.612 Y79.206 E25.95431
G1 X119.916 Y78.915 E25.98239
G1 X120.146 Y78.563 E26.01046
G1 X120.289 Y78.168 E26.03854
G1 X120.335 Y77.768 E26.06545
G1 X120.336 Y77.244 E26.10045
G1 X118.300 Y76.884 E26.23857
G1 X118.300 Y75.883 E26.30543
G1 X118.319 Y75.744 E26.31478
G1 X118.365 Y75.633 E26.32282
G1 X118.439 Y75.538 E26.33086
G1 X118.534 Y75.464 E26.33891
G1 X118.646 Y75.418 E26.34696
G1 X118.784 Y75.400 E26.35630
G1 X121.171 Y75.401 E26.51578
G1 X121.435 Y75.423 E26.53348
G1 X121.539 Y75.466 E26.54101
G1 X121.635 Y75.540 E26.54906
G1 X121.708 Y75.635 E26.55710
G1 X121.754 Y75.747 E26.56515
G1 X121.772 Y75.886 E26.57452
G1 X121.757 Y81.282 E26.93500
G1 X121.680 Y81.453 E26.94756
G1 X121.516 Y81.597 E26.96214
G1 X119.831 Y82.562 E27.09186
G1 X119.822 Y81.266 E27.17845
G1 X118.220 Y81.265 E27.28543
G1 X103.031 Y78.582 E28.31584
G1 X102.741 Y78.619 E28.33541
G1 X102.496 Y78.715 E28.35298
G1 X102.270 Y78.880 E28.37162
G1 X102.092 Y79.107 E28.39091
G1 X101.985 Y79.347 E28.40849
G1 X101.941 Y79.621 E28.42698
G1 X101.969 Y79.899 E28.44564
G1 X102.075 Y80.167 E28.46492
G1 X102.228 Y80.381 E28.48249
G1 X102.441 Y80.558 E28.50099
G1 X102.692 Y80.673 E28.51946
G1 X117.899 Y83.369 E29.55120
G1 X117.899 Y116.515 E31.76557
G1 X117.925 Y116.667 E31.77584
G1 X118.047 Y116.874 E31.79189
G1 X118.201 Y116.986 E31.80465
G1 X118.412 Y117.043 E31.81923
G1 X119.838 Y117.043 E31.91449
G1 X120.047 Y116.963 E31.92943
G1 X120.209 Y116.731 E31.94836
